X: 133
T: Perrie Werrie
T: Reel, G
L: 1/16
M: 2/2
K: G
|: B2G2G2F2 G4G2c2| B2G2B2d2 g2e2d2c2| B2G2G2F2 G4G2B2| A2G2A2B2 c4A2c2:| 
B2d2d2B2 d4d2c2| B2d2e2f2 g2e2d2c2| B2d2d2B2 d2e2d2B2| A2G2A2B2 c4A2c2| 
B2d2d2B2 d4d2c2| B2d2e2f2 g2e2d2B2| c4a2c2 B4g2B2| A2G2A2B2 c4A2c2|| 
D: Stephanie Wills, Tradition Continued, STEPH 1-94
